X:1
T:Resurrexi
T:Giovanni Bonaventura Matucci 1712-1777
T:ed. Jeffrey Quick
T:Resurrexi
T:Introito per la Resurrezione del Signore
T:2015
T:2015
T:2015
T:2015
T:2015
C:Giovanni Bonaventura Matucci
Z:2015
%%score [ 1 2 3 ]
L:1/8
Q:1/4=180
M:none
K:C
V:1 treble-8 nm="Tenor 1" snm="T 1"
V:2 treble-8 nm="Tenor 2" snm="T 2"
V:3 bass nm="Bass" snm="B"
V:1
 x16 | x16 | x16 | x8 ||[M:4/2][Q:1/2=90]"^[]" A8 A4 A4 | A4 d4 c4 e4 | e4 e4 e4 B4 | %7
w: ||||et ad- huc|te- cum sum, al-|le- lu- ja, al-|
 c2 d2 e8 d2 c2 | d4 A4 B4 c4 | d4 B8 A4- | A4 ^G4 c4 d4 | e4 c8 f4 | e6 dc d8 | c4 e4 d4 e4 | %14
w: le- * * * *|* lu- ja: po-|su- * i-|* sti su- per|me ma- num|tu- * * *|am, al- le- lu-|
 d4 c4 f4 d4 | c4 f4 d4 d4 | c4 e4 e6 d2 | c4 A8 ^F4 | G4 z4 c2 d2 c2 B2 | c12 c4 | %20
w: ja, al- le- lu-|ja, al- le- lu-|ja: mi- ra- bi-|lis fa- cta|est, fa- * * *|* cta|
 B4 d4 d2 c2 B2 A2 | B4 d4 d4 B4 | c2 B2 A2 G2 E4 c4 | c4 e8 d4- | d2 d2 c4 (c4 d4) | e4 B4 c4 B4 | %26
w: est sci- en- * * *|* ti- a, sci-|en- * * * * ti-|a, sci- en-|* ti- a tu- *|a, al- le- lu-|
 c4 e4 c4 B4 | c4 ^G4 A6 B2 | c4 c4 B8!fine! || z24 | z24 | z16 | z16 | z24 | z16 | z16 || %36
w: ja, al- le- lu-|ja, al- le- *|* lu- ja.||||||||
 e8 d4 B4 | c4 c4 z8 | G2 A2 B2 ^c2 d4 d4 | A2 B2 c2 d2 e4 e4 | z4 A4 A2 ^G2 A2 B2 | c4 e8 d2 c2 | %42
w: tu co- gno-|vi- sti|ses- si- o- nem me- am,|ses- si- o- nem me- am,|et re- sur- re- cti-|o- nem _ _|
 (d4 A4) B8 || z24 | z12 | z16 | z16 | z24 | z24 || e4 e4 A4 e4 | f4 f4 e8- | e4 d4 e4 e4 | %52
w: me- * am.|||||||si- cut e- rat|in prin- ci-|* pi- o, et|
 B4 c4 d8 | c8 e4 A4 | f4 c2 c2 d2 f2 e2 d2 | c4 B4 e8- | e4 ^d4 e4 c2 c2 | c6 c2 B4 c4 | %58
w: nunc et sem-|per et in|sae- cu- la sae- * cu- *|lo- rum, a-|* * men. et in|sae- cu- la in|
 d4 c2 c2 B4 B4 | e4 e4 d8- | d4 c4 B8 | z4 e2 e2 ^d4 =d2 d2 | ^c4 =c4 c4 B4 | e4 e4 f3 f f4 | %64
w: sae- cu- la sae- cu-|lo- rum, a-|* * men.|et in sae- cu- la|sae- cu- lo- rum,|et in sae- cu- la|
 ^d4 d4 e4 e4 | e4 e4 c4 B4 | c4 B4 c6 B2 | A8 ^G8"^[D.C. al Fine]" |] %68
w: sae- cu- lo- rum,|sae- cu- lo- rum,|a- men, a- *|* men.|
V:2
 x16 | x16 | x16 | x8 ||[M:4/2] F8 F4 E4 | F4 F4 E4 c4 | B4 A4 ^G4 G4 | A4 B4 c2 B2 A4- | %8
w: ||||et ad- huc|te- cum sum, al-|le- lu- ja, al-|le- * * * *|
 A4 A4 ^G4 A4 | B4 E4 c8 | B8 A4 (G2 F2) | G8 A2 G2 A2 B2 | c4 (c8 B4) | c8 z4 c4 | B4 c4 A4 B4 | %15
w: * lu- ja: po-|su- * i-|sti su- per _|me ma- * * *|num tu- *|am, al-|le- lu- ja, al-|
 c12 B4 | c4 c4 c6 B2 | A4 d6 e2 d2 c2 | B2 c2 B2 A2 G8- | G4 ^F2 E2 F4 F4 | G8 z4 d4 | %21
w: le- lu-|ja: mi- ra- bi-|lis fa- * * *||* * * * cta|est sci-|
 d2 c2 B2 A2 B4 d4 | e4 c4 c2 B2 A2 G2 | A6 E2 F8- | F4 E4 A8 | ^G8 z4 E4 | A4 ^G4 A4 G4 | %27
w: en- * * * * ti-|a, sci- en- * * *|* ti- a|_ _ tu-|a, al-|le- lu- ja, al-|
 A4 B4 c6 B2 | A4 A4 ^G8 || z24 | z24 | z16 | z16 | z24 | z16 | z16 || c8 d4 d4 | %37
w: le- * * *|* lu- ja.||||||||tu co- gno-|
 e4 e4 E2 F2 G2 A2 | B4 B4 A2 G2 A2 B2 | c8 c8 | z4 d4 c2 B2 c2 d2 | e4 c4 A8- | A8 ^G8 || z24 | %44
w: vi- sti ses- si- o- nem|me- am, ses- si- o- nem|me- am,|et re- sur- re- cti-|o- nem me-|* am.||
 z12 | z16 | z16 | z24 | z24 || ^c4 c4 d4 A4 | A2 G2 A2 B2 c4 B4 | A6 A2 ^G4 A4 | ^G2 G2 (A8 G4) | %53
w: |||||si- cut e- rat|in _ _ _ _ prin-|ci- pi- o, et|nunc et sem- *|
 A8 z8 | z16 | A4 E4 c4 G2 G2 | A2 c2 B2 A2 ^G2 E2 ^F2 G2 | A2 E2 A4 ^G4 A4 | A12 ^G4 | %59
w: per||et in sae- cu- la|sae- cu- lo- rum, a- * * *|* * men. et in|sae- cu-|
 (A4 G4) F4 A4 | B4 A4 ^G4 G4 | z4 E2 E2 ^F4 ^G2 G2 | A4 A4 A4 ^G4 | ^c4 c4 d3 d d4 | B4 B4 B4 B4 | %65
w: la _ sae- cu-|lo- rum, a- men.|et in sae- cu- la|sae- cu- lo- rum,|et in sae- cu- la|sae- cu- lo- rum,|
 c4 B4 A4 ^G4 | A4 ^G4 A6 B2 | c8 B8 |] %68
w: sae- cu- lo- rum,|a- men, a- *|* men.|
V:3
 E,8 G,8 | E,8 F,8 | D,8 F,8 | F,8 ||[M:4/2] D,8 D,4 ^C,4 | D,4 D,4 A,,4 A,4 | ^G,4 A,4 E,4 E,4 | %7
w: Re- *|sur- *|re- *|xi|et ad- huc|te- cum sum, al-|le- lu- ja, al-|
 A,4 G,4 F,8- | F,4 F,4 E,4 A,4- | A,4 ^G,4 A,8 | E,8 F,4 D,4 | C,8 F,2 E,2 F,2 G,2 | %12
w: le- * *|* lu- ja: po-|* su- i-|sti su- per|me ma- * * *|
 A,4 E,4 (F,4 G,4) | A,4 C4 B,4 C4 | G,4 A,4 F,4 G,4 | A,4 F,4 G,4 G,4 | C,8 z4 F,4 | F,6 E,2 D,8 | %18
w: * num tu- *|am, al- le- lu-|ja, al- le- lu-|ja, al- le- lu-|ja: mi-|ra- bi- lis|
 G,2 A,2 G,2 F,2 E,4 G,4 | A,12 A,4 | G,8 z8 | z4 G,4 G,2 F,2 E,2 D,2 | C,6 C,2 C,4 F,4 | %23
w: fa- * * * * *|* cta|est|sci- en- * * *|* ti- a, sci-|
 F,2 E,2 D,2 ^C,2 D,6 D,2 | A,,8 F,8 | E,4 E,4 A,4 ^G,4 | A,4 E,4 A,,4 E,4 | A,,4 E,4 A,,8- | %28
w: en- * * * * ti-|a tu-|a, al- le- lu-|ja, al- le- lu-|ja, al- le-|
 A,,4 A,,4 E,8 || A,8 ^G,8 A,8 | A,8 A,8 A,8 | A,8 A,8 | A,8 G,8 | G,8 B,8 B,8 | A,8 B,8 | %35
w: * lu- ja.|Do- mi- *|ne, pro- ba-|sti me,|et _|co- * gno-|vi- *|
 A,8 A,8 || A,8 B,4 G,4 | C4 C,4 C,2 D,2 E,2 ^F,2 | G,4 G,4 D,2 E,2 F,2 G,2 | A,8 A,,4 A,,4 | %40
w: sti me;|tu co- gno-|vi- sti ses- si- o- nem|me- am, ses- si- o- nem|me- am, et|
 D,2 ^C,2 D,2 E,2 F,8 | C,8 F,8- | F,8 E,8 || A,8 ^G,8 A,8 | A,8 A,4 | A,8 A,8 | A,8 G,8 | %47
w: re- sur- re- cti- o-|nem me-|* am.|Glo- ri- *|a Patri et Filio|et Spi-|ri- *|
 G,8 B,8 B,8 | A,8 B,8 A,8 || A,4 A,4 F,4 ^C,4 | D,2 E,2 F,2 G,2 A,4 G,4 | F,6 F,2 E,4 C,4 | %52
w: tu- * i|San- * cto|si- cut e- rat|in _ _ _ _ prin-|ci- pi- o, et|
 D,4 C,4 B,,8 | A,,8 z8 | z16 | z16 | z16 | z8 E,4 A,,4 | F,4 C,2 C,2 D,2 F,2 E,2 D,2 | %59
w: nunc et sem-|per||||et in|sae- cu- la sae- cu- lo- rum,|
 ^C,2 A,,2 B,,2 C,2 D,2 =C,2 B,,2 A,,2 | ^G,,4 A,,4 E,4 E,2 E,2 | E,16- | E,4 ^D,4 E,4 E,4 | %63
w: a- * * * * * * *|* * men. sae- cu-|lo-|* * * rum,|
 (A,2 G,2) (F,2 E,2) D,3 D, D,4 | (B,2 A,2) (^G,2 ^F,2) E,4 E,4 | A,4 ^G,4 A,4 E,4 | %66
w: et _ in _ sae- cu- la|sae- * cu- * lo- rum,|sae- cu- lo- rum,|
 A,,4 E,4 A,,8- | A,,8 E,8 |] %68
w: a- men. a-|* men.|

